X: 24
M:4/4
L:1/8
K:G
defg fcdB|AD (3FED FAdc|BEEF GABc|dBAc BE E2|
e2 ef g2 fe|defg afdf|e2 ef gfge|dBAc BE E2|
e2 ef g2 fe|defg afdf|gabg fagf|(3efg fa gfge||

